X: 393
T: What Ails You?   #2
B: Francis O'Neill: "The Dance Music of Ireland" (1907) #393
R: single jig
%S: s:4 b:16(4+4+4+4)
Z: Frank Nordberg - http://www.musicaviva.com
F: http://www.musicaviva.com/abc/tunes/ireland/oneill-1001/0393/oneill-1001-0393-1.abc
M: 6/8
L: 1/8
K: D
"^A"[|]A |: d2d def | e2d c2A |[1,3 B2B BAF | A2A ABc :|[2,4 B2A GEF | D2D D2 :|
"^B"|: B | A2G FEF | A2A A2 [1,3 g | f2d edB | d2d d2 :|[2,4  A | Bcd edc | d2D D2 :|
